X:1
T: Charles Leslie of Findlassie's Strathspey
C:
R:Strathspey
Q: 128
K:D
M:4/4
L:1/16
|:F2|D3E Fd3 AF3 Fd3|AF3 Fd3 A3F Fd3|D3E Fd3 AF3 Fd3|A3F GFED E4 E2F2|
D3E Fd3 AF3 Fd3|A3F d3B AF3 FA3|d3e fa3 ef3 df3|A3d BAGF E4 E2A2|
d3g f3e dA3 A3d|AF3 Fd3 AF3 FA3|d3g f3e dA3 A3d|A3F GFED E4 E2A2|
dg3 f3e dB3 B3d|A3F Fd3 AF3 FA3|d3e f3a ef3 d3f|1A3d BAGF E4-E2:|2A3d AE3 D6||
